;FLAVOR:Marlin
;TIME:5030
;Filament used: 2.68728m
;Layer height: 0.2
;MINX:170.008
;MINY:11.501
;MINZ:0.2
;MAXX:211.639
;MAXY:137.292
;MAXZ:30.8
;TARGET_MACHINE.NAME:Creality Ender-3 Pro
;Generated with Cura_SteamEngine 5.6.0
M82 ;absolute extrusion mode
; Ender 3 Custom Start G-code
G92 E0 ; Reset Extruder
G28 ; Home all axes
G1 Z5.0 F3000 ; Move Z Axis up a bit during heating to not damage bed
M104 S195.0 ; Start heating up the nozzle most of the way
M190 S60.0 ; Start heating the bed, wait until target temperature reached
M109 S205 ; Finish heating the nozzle
G1 Z2.0 F3000 ; Move Z Axis up little to prevent scratching of Heat Bed
G1 X0.1 Y20 Z0.3 F5000.0 ; Move to start position
G1 X0.1 Y200.0 Z0.3 F1500.0 E15 ; Draw the first line
G1 X0.4 Y200.0 Z0.3 F5000.0 ; Move to side a little
G1 X0.4 Y20 Z0.3 F1500.0 E30 ; Draw the second line
G92 E0 ; Reset Extruder
G1 Z2.0 F3000 ; Move Z Axis up little to prevent scratching of Heat Bed
G1 X5 Y20 Z0.3 F5000.0 ; Move over to prevent blob squish
G92 E0
G92 E0
G1 F4500 E-6
;LAYER_COUNT:154
;LAYER:0
M107
G0 F6000 X170.008 Y43.847 Z0.2
;TYPE:SKIRT
G1 F4500 E0
G1 F1200 X171.172 Y39.883 E0.13741
G1 X172.058 Y38.179 E0.20129
G1 X173.889 Y36.249 E0.28977
G1 X174.404 Y35.21 E0.32834
G1 X175.051 Y34.528 E0.35961
G1 X174.916 Y32.631 E0.42286
G1 X176.083 Y28.658 E0.56059
G1 X176.968 Y26.959 E0.6243
G1 X179.705 Y24.067 E0.75674
G1 X181.506 Y22.804 E0.8299
G1 X184.418 Y21.992 E0.93045
G1 X184.489 Y21.637 E0.94249
G1 X185.303 Y19.691 E1.01265
G1 X185.998 Y18.649 E1.05431
G1 X187.635 Y17.1 E1.12927
G1 X188.597 Y16.408 E1.16868
G1 X190.542 Y15.646 E1.23816
G1 X191.334 Y15.45 E1.2653
G1 X192.691 Y14.013 E1.33103
G1 X194.486 Y12.764 E1.40377
G1 X198.432 Y11.663 E1.54002
G1 X200.632 Y11.501 E1.61339
G1 X204.637 Y12.628 E1.75178
G1 X206.554 Y13.627 E1.82367
G1 X209.343 Y16.551 E1.95807
G1 X210.389 Y18.2 E2.02302
G1 X211.456 Y21.861 E2.14985
G1 X211.639 Y24.089 E2.22421
G1 X210.492 Y28.161 E2.36491
G1 X209.529 Y29.985 E2.43351
G1 X206.768 Y32.746 E2.56338
G1 X204.967 Y33.905 E2.63462
G1 X201.173 Y34.957 E2.76557
G1 X198.989 Y35.113 E2.83839
G1 X198.775 Y35.076 E2.84561
G1 X197.814 Y38.497 E2.9638
G1 X196.851 Y40.321 E3.0324
G1 X196.319 Y40.853 E3.05743
G1 X196.458 Y42.534 E3.11353
G1 X195.281 Y46.716 E3.25803
G1 X194.346 Y48.487 E3.32464
G1 X194.169 Y48.689 E3.33357
G1 X196.791 Y51.457 E3.46038
G1 X197.816 Y53.068 E3.52389
G1 X198.916 Y56.817 E3.65384
G1 X199.099 Y59.068 E3.72895
G1 X197.922 Y63.25 E3.87345
G1 X196.959 Y65.074 E3.94205
G1 X194.117 Y67.916 E4.07573
G1 X193.228 Y68.487 E4.11087
G1 X193.02 Y69.231 E4.13657
G1 X192.059 Y71.053 E4.20508
G1 X189.948 Y73.164 E4.30438
G1 X190.652 Y73.53 E4.33077
G1 X192.487 Y73.53 E4.3918
G1 X193.954 Y73.823 E4.44155
G1 X195.743 Y74.608 E4.50653
G1 X196.782 Y75.211 E4.54649
G1 X198.409 Y76.842 E4.62311
G1 X199.21 Y78.054 E4.67143
G1 X200.005 Y80.006 E4.74153
G1 X200.265 Y81.321 E4.78612
G1 X200.165 Y83.703 E4.86541
G1 X199.979 Y84.726 E4.9
G1 X199.15 Y86.705 E4.97136
G1 X198.054 Y88.253 E5.03444
G1 X198.112 Y88.958 E5.05797
G1 X196.935 Y93.14 E5.20247
G1 X195.972 Y94.964 E5.27107
G1 X194.13 Y96.806 E5.35771
G1 X194.964 Y99.629 E5.45562
G1 X195.147 Y101.884 E5.53087
G1 X194.104 Y105.59 E5.65892
G1 X194.29 Y105.712 E5.66632
G1 X197.142 Y108.72 E5.80418
G1 X198.148 Y110.301 E5.86651
G1 X199.25 Y114.057 E5.9967
G1 X199.433 Y116.308 E6.07182
G1 X198.256 Y120.49 E6.21631
G1 X197.293 Y122.314 E6.28492
G1 X194.457 Y125.15 E6.41831
G1 X193.124 Y126.008 E6.47104
G1 X193.212 Y126.243 E6.47939
G1 X193.465 Y127.521 E6.52272
G1 X193.365 Y129.903 E6.60201
G1 X193.179 Y130.926 E6.6366
G1 X192.352 Y132.897 E6.70769
G1 X190.932 Y134.903 E6.78943
G1 X188.636 Y136.422 E6.881
G1 X186.329 Y137.292 E6.963
G1 X183.572 Y137.292 E7.0547
G1 X181.191 Y136.752 E7.13591
G1 X178.88 Y135.207 E7.22836
G1 X177.472 Y133.72 E7.29648
G1 X177.106 Y133.214 E7.31725
G1 X176.124 Y130.702 E7.40695
G1 X175.888 Y129.69 E7.44152
G1 X175.888 Y127.527 E7.51346
G1 X176.19 Y126.034 E7.56412
G1 X177.003 Y124.091 E7.63417
G1 X177.638 Y123.139 E7.67224
G1 X177.485 Y123.038 E7.67833
G1 X174.648 Y120.201 E7.81178
G1 X173.517 Y118.44 E7.88139
G1 X172.416 Y114.683 E8.0116
G1 X172.253 Y112.318 E8.09045
G1 X173.396 Y108.426 E8.22536
G1 X173.521 Y108.164 E8.23502
G1 X172.336 Y106.319 E8.30795
G1 X171.235 Y102.562 E8.43816
G1 X171.072 Y100.197 E8.51701
G1 X172.203 Y96.346 E8.6505
G1 X171.845 Y95.791 E8.67247
G1 X170.748 Y92.046 E8.80226
G1 X170.585 Y89.692 E8.88075
G1 X171.749 Y85.714 E9.0186
G1 X172.596 Y84.097 E9.07932
G1 X172.752 Y83.901 E9.08765
G1 X172.687 Y82.973 E9.11859
G1 X173.854 Y79.003 E9.25622
G1 X174.74 Y77.301 E9.32004
G1 X176.95 Y74.965 E9.42699
G1 X175.412 Y74.136 E9.48511
G1 X172.519 Y71.243 E9.62118
G1 X171.388 Y69.482 E9.69079
G1 X170.287 Y65.725 E9.82101
G1 X170.124 Y63.36 E9.89985
G1 X171.289 Y59.394 E10.03734
G1 X172.182 Y57.677 E10.10171
G1 X174.901 Y54.804 E10.23327
G1 X175.24 Y54.567 E10.24703
G1 X172.403 Y51.73 E10.38047
G1 X171.272 Y49.969 E10.45008
G1 X170.171 Y46.212 E10.5803
G1 X170.008 Y43.847 E10.65914
G0 F6000 X170.412 Y43.892
G1 F1200 X171.546 Y40.031 E10.79299
G1 X172.387 Y38.413 E10.85364
G1 X174.221 Y36.48 E10.94226
G1 X174.736 Y35.441 E10.98083
G1 X175.463 Y34.675 E11.01596
G1 X175.32 Y32.675 E11.08265
G1 X176.456 Y28.808 E11.2167
G1 X177.298 Y27.191 E11.27733
G1 X179.967 Y24.372 E11.40645
G1 X181.679 Y23.171 E11.47601
G1 X184.761 Y22.311 E11.58243
G1 X184.874 Y21.754 E11.60133
G1 X185.656 Y19.883 E11.66878
G1 X186.307 Y18.907 E11.7078
G1 X187.869 Y17.425 E11.77942
G1 X188.792 Y16.761 E11.81723
G1 X190.638 Y16.034 E11.88322
G1 X191.545 Y15.81 E11.91429
G1 X192.955 Y14.317 E11.9826
G1 X194.66 Y13.13 E12.05169
G1 X198.499 Y12.059 E12.18426
G1 X200.592 Y11.905 E12.25406
G1 X204.487 Y13.001 E12.38864
G1 X206.312 Y13.952 E12.45708
G1 X209.025 Y16.797 E12.58784
G1 X210.021 Y18.367 E12.64968
G1 X211.06 Y21.932 E12.77318
G1 X211.234 Y24.051 E12.8439
G1 X210.119 Y28.01 E12.9807
G1 X209.203 Y29.745 E13.04595
G1 X206.513 Y32.435 E13.17248
G1 X204.802 Y33.536 E13.24015
G1 X201.107 Y34.561 E13.36769
G1 X198.961 Y34.714 E13.43925
G1 X198.499 Y34.58 E13.45525
G1 X197.441 Y38.346 E13.58535
G1 X196.525 Y40.081 E13.65061
G1 X195.905 Y40.701 E13.67977
G1 X196.053 Y42.496 E13.73968
G1 X194.908 Y46.565 E13.88027
G1 X193.992 Y48.3 E13.94552
G1 X193.587 Y48.705 E13.96457
G1 X193.725 Y48.801 E13.97016
G1 X196.471 Y51.7 E14.10297
G1 X197.448 Y53.236 E14.16352
G1 X198.52 Y56.89 E14.29018
G1 X198.694 Y59.03 E14.36159
G1 X197.549 Y63.099 E14.50218
G1 X196.633 Y64.834 E14.56743
G1 X193.865 Y67.602 E14.69763
G1 X192.884 Y68.232 E14.73641
G1 X192.647 Y69.08 E14.76569
G1 X191.733 Y70.813 E14.83086
G1 X189.241 Y73.305 E14.94808
G1 X189.517 Y73.391 E14.95769
G1 X190.553 Y73.93 E14.99653
G1 X192.449 Y73.93 E15.05959
G1 X193.83 Y74.206 E15.10643
G1 X195.542 Y74.954 E15.16857
G1 X196.538 Y75.532 E15.20687
G1 X198.094 Y77.092 E15.28016
G1 X198.856 Y78.245 E15.32613
G1 X199.62 Y80.121 E15.3935
G1 X199.863 Y81.349 E15.43513
G1 X199.771 Y83.632 E15.51113
G1 X199.593 Y84.612 E15.54426
G1 X198.798 Y86.509 E15.61267
G1 X197.643 Y88.141 E15.67917
G1 X197.707 Y88.92 E15.70516
G1 X196.562 Y92.989 E15.84575
G1 X195.646 Y94.724 E15.91101
G1 X193.679 Y96.691 E16.00353
G1 X194.568 Y99.703 E16.10798
G1 X194.742 Y101.846 E16.17949
G1 X193.631 Y105.795 E16.31594
G1 X194 Y105.987 E16.32977
G1 X196.822 Y108.963 E16.46618
G1 X197.78 Y110.469 E16.52555
G1 X198.854 Y114.13 E16.65244
G1 X199.028 Y116.27 E16.72385
G1 X197.883 Y120.339 E16.86445
G1 X196.967 Y122.074 E16.9297
G1 X194.202 Y124.839 E17.05976
G1 X192.628 Y125.852 E17.12201
G1 X192.82 Y126.321 E17.13887
G1 X193.063 Y127.549 E17.18051
G1 X192.971 Y129.832 E17.2565
G1 X192.793 Y130.812 E17.28963
G1 X192 Y132.701 E17.35777
G1 X190.649 Y134.61 E17.43555
G1 X188.45 Y136.065 E17.52325
G1 X186.257 Y136.892 E17.60121
G1 X183.617 Y136.892 E17.68901
G1 X181.352 Y136.378 E17.76626
G1 X179.14 Y134.9 E17.85475
G1 X177.763 Y133.445 E17.92138
G1 X177.459 Y133.02 E17.93876
G1 X176.514 Y130.611 E18.02482
G1 X176.288 Y129.642 E18.05792
G1 X176.288 Y127.566 E18.12697
G1 X176.574 Y126.152 E18.17495
G1 X177.356 Y124.283 E18.24233
G1 X178.003 Y123.313 E18.28111
G1 X178.29 Y123.035 E18.2944
G1 X177.768 Y122.755 E18.3141
G1 X174.962 Y119.949 E18.44609
G1 X173.885 Y118.272 E18.51238
G1 X172.812 Y114.611 E18.63927
G1 X172.657 Y112.363 E18.71421
G1 X173.78 Y108.539 E18.84677
G1 X174.018 Y108.065 E18.86441
G1 X173.781 Y107.828 E18.87556
G1 X172.704 Y106.151 E18.94185
G1 X171.631 Y102.49 E19.06874
G1 X171.476 Y100.242 E19.14368
G1 X172.588 Y96.455 E19.27496
G1 X172.654 Y96.308 E19.28032
G1 X172.213 Y95.623 E19.30741
G1 X171.144 Y91.975 E19.43385
G1 X170.989 Y89.736 E19.5085
G1 X172.122 Y85.864 E19.64268
G1 X172.95 Y84.283 E19.70204
G1 X173.162 Y84.038 E19.71281
G1 X173.091 Y83.018 E19.74682
G1 X174.227 Y79.153 E19.88081
G1 X175.069 Y77.536 E19.94145
G1 X177.64 Y74.819 E20.06586
G1 X177.344 Y74.723 E20.07621
G1 X175.654 Y73.812 E20.14007
G1 X172.833 Y70.991 E20.27276
G1 X171.756 Y69.314 E20.33905
G1 X170.683 Y65.653 E20.46593
G1 X170.528 Y63.405 E20.54088
G1 X171.662 Y59.544 E20.67472
G1 X172.512 Y57.909 E20.73601
G1 X175.162 Y55.11 E20.86421
G1 X175.98 Y54.537 E20.89743
G1 X175.538 Y54.299 E20.91413
G1 X172.717 Y51.478 E21.04682
G1 X171.64 Y49.801 E21.11311
G1 X170.567 Y46.14 E21.23999
G1 X170.412 Y43.892 E21.31494
G0 F6000 X170.816 Y43.937
G1 F1200 X170.963 Y46.068 E21.38599
G1 X172.008 Y49.633 E21.50955
G1 X173.031 Y51.226 E21.57252
G1 X175.78 Y53.975 E21.70182
G1 X176.71 Y54.476 E21.73695
G1 X176.696 Y54.524 E21.73862
G1 X175.426 Y55.413 E21.79018
G1 X172.841 Y58.144 E21.91525
G1 X172.035 Y59.694 E21.97336
G1 X170.932 Y63.45 E22.10356
G1 X171.079 Y65.581 E22.1746
G1 X172.124 Y69.146 E22.29816
G1 X173.147 Y70.739 E22.36113
G1 X175.896 Y73.488 E22.49044
G1 X177.534 Y74.371 E22.55233
G1 X178.518 Y74.659 E22.58643
G1 X178 Y75.021 E22.60745
G1 X175.398 Y77.771 E22.73337
G1 X174.6 Y79.303 E22.79082
G1 X173.495 Y83.063 E22.92117
G1 X173.573 Y84.186 E22.95861
G1 X173.304 Y84.468 E22.97157
G1 X172.496 Y86.012 E23.02953
G1 X171.393 Y89.78 E23.16011
G1 X171.54 Y91.903 E23.23089
G1 X172.582 Y95.458 E23.35411
G1 X173.112 Y96.282 E23.38669
G1 X172.972 Y96.568 E23.39729
G1 X171.88 Y100.287 E23.5262
G1 X172.027 Y102.418 E23.59725
G1 X173.072 Y105.983 E23.72081
G1 X174.095 Y107.576 E23.78378
G1 X174.508 Y107.989 E23.8032
G1 X174.164 Y108.652 E23.82805
G1 X173.061 Y112.408 E23.95825
G1 X173.208 Y114.539 E24.02929
G1 X174.253 Y118.104 E24.15285
G1 X175.276 Y119.697 E24.21582
G1 X178.011 Y122.432 E24.34447
G1 X178.961 Y122.942 E24.38033
G1 X178.314 Y123.568 E24.41027
G1 X177.709 Y124.475 E24.44654
G1 X176.958 Y126.27 E24.51125
G1 X176.688 Y127.605 E24.55655
G1 X176.688 Y129.594 E24.62271
G1 X176.904 Y130.52 E24.65433
G1 X177.812 Y132.827 E24.73679
G1 X178.088 Y133.212 E24.75255
G1 X179.398 Y134.591 E24.81581
G1 X181.514 Y136.005 E24.90046
G1 X183.661 Y136.492 E24.97368
G1 X186.185 Y136.492 E25.05763
G1 X188.264 Y135.708 E25.13153
G1 X190.368 Y134.316 E25.21544
G1 X191.647 Y132.509 E25.28907
G1 X192.407 Y130.698 E25.35439
G1 X192.577 Y129.761 E25.38607
G1 X192.661 Y127.578 E25.45873
G1 X192.435 Y126.436 E25.49745
G1 X192.107 Y125.634 E25.52627
G1 X192.373 Y125.541 E25.53564
G1 X193.947 Y124.528 E25.5979
G1 X196.641 Y121.834 E25.72461
G1 X197.51 Y120.188 E25.78652
G1 X198.623 Y116.232 E25.92321
G1 X198.458 Y114.203 E25.99091
G1 X197.411 Y110.634 E26.11462
G1 X196.505 Y109.21 E26.17076
G1 X193.758 Y106.312 E26.30357
G1 X193.112 Y105.976 E26.32779
G1 X193.236 Y105.721 E26.33722
G1 X194.337 Y101.808 E26.47242
G1 X194.172 Y99.777 E26.54019
G1 X193.228 Y96.576 E26.65119
G1 X195.32 Y94.484 E26.74959
G1 X196.189 Y92.838 E26.8115
G1 X197.302 Y88.882 E26.94818
G1 X197.232 Y88.029 E26.97665
G1 X198.446 Y86.313 E27.04656
G1 X199.207 Y84.498 E27.11202
G1 X199.377 Y83.561 E27.1437
G1 X199.461 Y81.378 E27.21636
G1 X199.235 Y80.236 E27.25508
G1 X198.501 Y78.434 E27.31979
G1 X197.781 Y77.344 E27.36324
G1 X196.294 Y75.853 E27.43328
G1 X195.341 Y75.3 E27.46993
G1 X193.706 Y74.589 E27.52923
G1 X192.411 Y74.33 E27.57315
G1 X190.455 Y74.33 E27.63821
G1 X189.332 Y73.746 E27.68031
G1 X188.382 Y73.48 E27.71312
G1 X188.713 Y73.267 E27.72621
G1 X191.407 Y70.573 E27.85293
G1 X192.275 Y68.928 E27.91479
G1 X192.54 Y67.977 E27.94763
G1 X193.613 Y67.288 E27.99004
G1 X196.307 Y64.594 E28.11676
G1 X197.176 Y62.948 E28.17866
G1 X198.289 Y58.992 E28.31535
G1 X198.124 Y56.963 E28.38306
G1 X197.079 Y53.401 E28.50652
G1 X196.154 Y51.947 E28.56384
G1 X193.435 Y49.076 E28.69536
G1 X192.918 Y48.808 E28.71472
G1 X193.666 Y48.06 E28.74991
G1 X194.535 Y46.414 E28.81182
G1 X195.648 Y42.458 E28.9485
G1 X195.491 Y40.549 E29.01221
G1 X196.199 Y39.841 E29.04551
G1 X197.068 Y38.195 E29.10742
G1 X198.161 Y34.306 E29.24178
G1 X198.167 Y34.066 E29.24976
G1 X199.004 Y34.31 E29.27876
G1 X201.041 Y34.165 E29.34668
G1 X204.635 Y33.168 E29.47074
G1 X206.26 Y32.122 E29.53501
G1 X208.877 Y29.505 E29.65811
G1 X209.746 Y27.859 E29.72001
G1 X210.829 Y24.013 E29.85291
G1 X210.664 Y22.003 E29.91999
G1 X209.653 Y18.534 E30.04017
G1 X208.709 Y17.046 E30.09878
G1 X206.068 Y14.276 E30.22607
G1 X204.337 Y13.374 E30.29099
G1 X200.552 Y12.309 E30.42177
G1 X198.566 Y12.455 E30.488
G1 X194.834 Y13.496 E30.61687
G1 X193.219 Y14.621 E30.68233
G1 X191.756 Y16.17 E30.7532
G1 X190.734 Y16.422 E30.78821
G1 X188.987 Y17.114 E30.8507
G1 X188.103 Y17.75 E30.88693
G1 X186.615 Y19.167 E30.95527
G1 X186.009 Y20.075 E30.99158
G1 X185.258 Y21.872 E31.05635
G1 X185.105 Y22.63 E31.08207
G1 X181.855 Y23.537 E31.1943
G1 X180.229 Y24.677 E31.26035
G1 X177.627 Y27.426 E31.38624
G1 X176.829 Y28.958 E31.4437
G1 X175.724 Y32.719 E31.57407
G1 X175.874 Y34.822 E31.6442
G1 X175.068 Y35.672 E31.68316
G1 X174.553 Y36.711 E31.72173
G1 X172.717 Y38.646 E31.81045
G1 X171.919 Y40.181 E31.86799
G1 X170.816 Y43.937 E31.99819
G0 F6000 X171.22 Y43.982
G1 F1200 X172.292 Y40.331 E32.12475
G1 X173.047 Y38.879 E32.17918
G1 X174.885 Y36.942 E32.26799
G1 X175.4 Y35.903 E32.30656
G1 X176.314 Y34.939 E32.35074
G1 X176.264 Y34.734 E32.35776
G1 X176.128 Y32.763 E32.42347
G1 X177.202 Y29.108 E32.55018
G1 X177.957 Y27.658 E32.60455
G1 X180.49 Y24.982 E32.72711
G1 X182.029 Y23.904 E32.7896
G1 X185.449 Y22.949 E32.9077
G1 X185.642 Y21.99 E32.94024
G1 X186.362 Y20.267 E33.00235
G1 X186.925 Y19.424 E33.03607
G1 X188.336 Y18.075 E33.10099
G1 X189.179 Y17.469 E33.13552
G1 X190.831 Y16.81 E33.19468
G1 X191.81 Y16.566 E33.22824
G1 X191.948 Y16.55 E33.23286
G1 X193.483 Y14.925 E33.30721
G1 X195.007 Y13.863 E33.36899
G1 X198.634 Y12.851 E33.49423
G1 X200.512 Y12.713 E33.55686
G1 X204.187 Y13.747 E33.68384
G1 X205.824 Y14.6 E33.74523
G1 X208.393 Y17.295 E33.86907
G1 X209.285 Y18.701 E33.92445
G1 X210.268 Y22.074 E34.04131
G1 X210.424 Y23.975 E34.10475
G1 X209.373 Y27.708 E34.23373
G1 X208.551 Y29.265 E34.29229
G1 X206.005 Y31.811 E34.41205
G1 X204.47 Y32.799 E34.47276
G1 X200.975 Y33.769 E34.5934
G1 X199.047 Y33.906 E34.65769
G1 X197.718 Y33.518 E34.70374
G1 X197.776 Y34.198 E34.72644
G1 X196.695 Y38.044 E34.85931
G1 X195.873 Y39.601 E34.91787
G1 X195.055 Y40.419 E34.95635
G1 X195.093 Y40.585 E34.96201
G1 X195.243 Y42.42 E35.02325
G1 X194.162 Y46.263 E35.15603
G1 X193.34 Y47.82 E35.21459
G1 X192.249 Y48.911 E35.2659
G1 X193.192 Y49.4 E35.30123
G1 X195.837 Y52.194 E35.4292
G1 X196.71 Y53.566 E35.48329
G1 X197.728 Y57.036 E35.60356
G1 X197.884 Y58.954 E35.66757
G1 X196.803 Y62.797 E35.80035
G1 X195.981 Y64.354 E35.85891
G1 X193.358 Y66.977 E35.98228
G1 X192.196 Y67.724 E36.02823
G1 X191.902 Y68.777 E36.06459
