;FLAVOR:Marlin
;TIME:4424
;Filament used: 2.40073m
;Layer height: 0.2
;MINX:175.101
;MINY:14.944
;MINZ:0.2
;MAXX:209.139
;MAXY:136.427
;MAXZ:30.8
;TARGET_MACHINE.NAME:Creality Ender-3 Pro
;Generated with Cura_SteamEngine 5.6.0
M82 ;absolute extrusion mode
; Ender 3 Custom Start G-code
G92 E0 ; Reset Extruder
G28 ; Home all axes
G1 Z5.0 F3000 ; Move Z Axis up a bit during heating to not damage bed
M104 S195.0 ; Start heating up the nozzle most of the way
M190 S60.0 ; Start heating the bed, wait until target temperature reached
M109 S205 ; Finish heating the nozzle
G1 Z2.0 F3000 ; Move Z Axis up little to prevent scratching of Heat Bed
G1 X0.1 Y20 Z0.3 F5000.0 ; Move to start position
G1 X0.1 Y200.0 Z0.3 F1500.0 E15 ; Draw the first line
G1 X0.4 Y200.0 Z0.3 F5000.0 ; Move to side a little
G1 X0.4 Y20 Z0.3 F1500.0 E30 ; Draw the second line
G92 E0 ; Reset Extruder
G1 Z2.0 F3000 ; Move Z Axis up little to prevent scratching of Heat Bed
G1 X5 Y20 Z0.3 F5000.0 ; Move over to prevent blob squish
G92 E0
G92 E0
G1 F4500 E-6
;LAYER_COUNT:154
;LAYER:0
M107
G0 F6000 X175.101 Y25.62 Z0.2
;TYPE:SKIRT
G1 F4500 E0
G1 F1200 X176.201 Y21.873 E0.12989
G1 X177.086 Y20.174 E0.1936
G1 X179.68 Y17.436 E0.31905
G1 X181.47 Y16.175 E0.39187
G1 X185.301 Y15.106 E0.52416
G1 X187.502 Y14.944 E0.59756
G1 X191.392 Y16.039 E0.73197
G1 X193.136 Y16.947 E0.79737
G1 X193.295 Y17.069 E0.80404
G1 X194.978 Y16.946 E0.86016
G1 X198.868 Y18.041 E0.99457
G1 X200.781 Y19.038 E1.06632
G1 X203.493 Y21.887 E1.19715
G1 X203.785 Y22.348 E1.2153
G1 X204.064 Y22.532 E1.22641
G1 X206.681 Y25.3 E1.35311
G1 X207.712 Y26.922 E1.41703
G1 X208.747 Y30.464 E1.53977
G1 X208.93 Y32.692 E1.61412
G1 X208.163 Y35.413 E1.70815
G1 X208.237 Y35.71 E1.71833
G1 X208.414 Y37.862 E1.79015
G1 X207.673 Y40.491 E1.88099
G1 X207.754 Y40.664 E1.88735
G1 X208.74 Y44.041 E2.00436
G1 X208.923 Y46.269 E2.07871
G1 X207.811 Y50.218 E2.21516
G1 X207.324 Y51.136 E2.24972
G1 X207.412 Y52.195 E2.28507
G1 X207.134 Y53.177 E2.31901
G1 X207.71 Y54.09 E2.35492
G1 X208.742 Y57.615 E2.47708
G1 X208.925 Y59.847 E2.55157
G1 X207.811 Y63.804 E2.68829
G1 X206.848 Y65.628 E2.7569
G1 X205.53 Y66.946 E2.81889
G1 X205.898 Y68.197 E2.86226
G1 X206.063 Y70.242 E2.9305
G1 X206.051 Y70.397 E2.93567
G1 X206.892 Y71.288 E2.97642
G1 X207.921 Y72.907 E3.04023
G1 X208.956 Y76.449 E3.16296
G1 X209.139 Y78.677 E3.23731
G1 X208.025 Y82.635 E3.37407
G1 X207.247 Y84.099 E3.42921
G1 X206.785 Y85.756 E3.48643
G1 X207.183 Y87.113 E3.53346
G1 X207.366 Y89.347 E3.60801
G1 X206.255 Y93.296 E3.74446
G1 X206.066 Y93.651 E3.75783
G1 X206.111 Y93.843 E3.76439
G1 X206.276 Y95.858 E3.83164
G1 X206.248 Y96.083 E3.83918
G1 X207.142 Y97.489 E3.89459
G1 X208.176 Y101.032 E4.01735
G1 X208.359 Y103.261 E4.09174
G1 X207.793 Y105.266 E4.16103
G1 X208.744 Y108.531 E4.27414
G1 X208.927 Y110.757 E4.34842
G1 X207.813 Y114.714 E4.48515
G1 X206.85 Y116.538 E4.55375
G1 X206.384 Y117.004 E4.57567
G1 X207.441 Y118.67 E4.6413
G1 X208.475 Y122.209 E4.76392
G1 X208.658 Y124.437 E4.83828
G1 X207.544 Y128.395 E4.97504
G1 X206.581 Y130.219 E5.04364
G1 X202.705 Y134.089 E5.22581
G1 X200.909 Y135.245 E5.29685
G1 X197.22 Y136.266 E5.42416
G1 X194.97 Y136.427 E5.49919
G1 X191.153 Y135.31 E5.63147
G1 X189.337 Y134.331 E5.70008
G1 X188.831 Y133.824 E5.72391
G1 X187.466 Y133.428 E5.77118
G1 X185.601 Y132.427 E5.84158
G1 X182.901 Y129.727 E5.96858
G1 X181.759 Y127.949 E6.03886
G1 X180.723 Y124.415 E6.16135
G1 X180.56 Y122.059 E6.2399
G1 X181.656 Y118.32 E6.36949
G1 X182.565 Y116.57 E6.43508
G1 X183.242 Y115.859 E6.46774
G1 X183.106 Y113.902 E6.53298
G1 X184.196 Y110.189 E6.66169
G1 X184.369 Y109.841 E6.67461
G1 X184.161 Y109.62 E6.68471
G1 X183.048 Y107.886 E6.75324
G1 X182.249 Y105.162 E6.84766
G1 X181.88 Y104.601 E6.86999
G1 X180.822 Y100.99 E6.99514
G1 X180.659 Y98.628 E7.07389
G1 X181.756 Y94.888 E7.20352
G1 X182.337 Y93.769 E7.24546
G1 X182.069 Y93.613 E7.25577
G1 X180.538 Y92.336 E7.32208
G1 X179.265 Y90.758 E7.38952
G1 X178.345 Y89.025 E7.45477
G1 X177.763 Y87.103 E7.52157
G1 X177.563 Y84.939 E7.59385
G1 X177.772 Y82.986 E7.65918
G1 X178.378 Y81.047 E7.72674
G1 X179.402 Y79.187 E7.79736
G1 X180.709 Y77.736 E7.86232
G1 X181.999 Y76.603 E7.91942
G1 X182.125 Y76.521 E7.92442
G1 X182.813 Y74.176 E8.0057
G1 X181.819 Y72.634 E8.06672
G1 X180.784 Y69.101 E8.18917
G1 X180.621 Y66.739 E8.26792
G1 X181.723 Y62.987 E8.39798
G1 X182.274 Y61.928 E8.43768
G1 X182.105 Y61.353 E8.45762
G1 X181.961 Y59.272 E8.527
G1 X181.805 Y59 E8.53743
G1 X180.786 Y55.525 E8.65787
G1 X180.623 Y53.166 E8.73652
G1 X181.719 Y49.427 E8.86611
G1 X182.621 Y47.692 E8.93115
G1 X183.113 Y47.175 E8.95489
G1 X182.999 Y46.965 E8.96284
G1 X182.305 Y44.574 E9.04564
G1 X181.889 Y43.943 E9.07078
G1 X180.84 Y40.368 E9.1947
G1 X180.677 Y37.995 E9.27381
G1 X181.113 Y36.511 E9.32526
G1 X180.139 Y35.989 E9.36201
G1 X177.442 Y33.292 E9.48887
G1 X176.3 Y31.514 E9.55915
G1 X175.264 Y27.98 E9.68164
G1 X175.101 Y25.62 E9.76032
G0 F6000 X175.505 Y25.665
G1 F1200 X176.574 Y22.023 E9.88657
G1 X177.416 Y20.407 E9.94717
G1 X179.942 Y17.74 E10.06935
G1 X181.644 Y16.541 E10.13859
G1 X185.368 Y15.502 E10.26718
G1 X187.462 Y15.348 E10.33702
G1 X191.242 Y16.412 E10.46763
G1 X192.951 Y17.302 E10.53172
G1 X193.163 Y17.48 E10.54092
G1 X194.938 Y17.35 E10.60012
G1 X198.718 Y18.414 E10.73073
G1 X200.537 Y19.362 E10.79895
G1 X203.177 Y22.136 E10.92632
G1 X203.498 Y22.642 E10.94625
G1 X203.773 Y22.807 E10.95692
G1 X206.363 Y25.546 E11.08229
G1 X207.345 Y27.091 E11.14318
G1 X208.351 Y30.535 E11.26252
G1 X208.525 Y32.654 E11.33323
G1 X207.749 Y35.41 E11.42846
G1 X207.838 Y35.743 E11.43993
G1 X208.009 Y37.824 E11.50937
G1 X207.245 Y40.535 E11.60305
G1 X207.37 Y40.776 E11.61208
G1 X208.344 Y44.112 E11.72767
G1 X208.518 Y46.231 E11.79839
G1 X207.437 Y50.07 E11.93104
G1 X206.915 Y51.054 E11.96809
G1 X207.007 Y52.156 E12.00487
G1 X206.701 Y53.239 E12.0423
G1 X207.341 Y54.254 E12.08221
G1 X208.346 Y57.687 E12.20118
G1 X208.52 Y59.809 E12.272
G1 X207.438 Y63.653 E12.40482
G1 X206.522 Y65.388 E12.47007
G1 X205.079 Y66.831 E12.53795
G1 X205.502 Y68.27 E12.58783
G1 X205.664 Y70.274 E12.6547
G1 X205.627 Y70.532 E12.66337
G1 X206.574 Y71.534 E12.70923
G1 X207.554 Y73.076 E12.77
G1 X208.56 Y76.52 E12.88933
G1 X208.734 Y78.639 E12.96005
G1 X207.652 Y82.483 E13.09287
G1 X206.932 Y83.847 E13.14417
G1 X206.878 Y83.933 E13.14754
G1 X206.369 Y85.76 E13.21062
G1 X206.787 Y87.186 E13.26005
G1 X206.961 Y89.309 E13.3309
G1 X205.882 Y93.146 E13.46347
G1 X205.64 Y93.601 E13.48061
G1 X205.712 Y93.876 E13.49006
G1 X205.877 Y95.891 E13.55731
G1 X205.826 Y96.165 E13.56658
G1 X206.774 Y97.655 E13.62531
G1 X207.78 Y101.103 E13.74478
G1 X207.954 Y103.222 E13.81549
G1 X207.377 Y105.267 E13.88616
G1 X208.348 Y108.602 E14.00169
G1 X208.522 Y110.719 E14.07234
G1 X207.44 Y114.563 E14.20516
G1 X206.524 Y116.298 E14.27042
G1 X205.82 Y117.002 E14.30353
G1 X206.107 Y117.315 E14.31765
G1 X207.073 Y118.837 E14.37761
G1 X208.079 Y122.28 E14.49691
G1 X208.253 Y124.399 E14.56763
G1 X207.171 Y128.244 E14.70048
G1 X206.255 Y129.979 E14.76574
G1 X202.45 Y133.778 E14.94457
G1 X200.744 Y134.876 E15.01205
G1 X197.154 Y135.87 E15.13595
G1 X195.013 Y136.023 E15.20734
G1 X191.306 Y134.938 E15.33581
G1 X189.579 Y134.007 E15.40106
G1 X189.042 Y133.469 E15.42634
G1 X187.616 Y133.055 E15.47573
G1 X185.844 Y132.104 E15.54262
G1 X183.215 Y129.475 E15.66628
G1 X182.126 Y127.78 E15.73329
G1 X181.119 Y124.344 E15.85238
G1 X180.964 Y122.103 E15.92709
G1 X182.029 Y118.469 E16.05304
G1 X182.893 Y116.806 E16.11537
G1 X183.653 Y116.008 E16.15203
G1 X183.51 Y113.947 E16.22074
G1 X184.58 Y110.302 E16.34709
G1 X184.859 Y109.765 E16.36722
G1 X184.498 Y109.404 E16.3842
G1 X183.416 Y107.718 E16.45083
G1 X182.617 Y104.993 E16.54528
G1 X182.247 Y104.431 E16.56766
G1 X181.218 Y100.919 E16.68938
G1 X181.063 Y98.673 E16.76426
G1 X182.13 Y95.036 E16.89032
G1 X182.872 Y93.608 E16.94385
G1 X182.325 Y93.306 E16.96463
G1 X180.824 Y92.054 E17.02964
G1 X179.601 Y90.538 E17.09442
G1 X178.717 Y88.873 E17.15712
G1 X178.157 Y87.024 E17.22138
G1 X177.965 Y84.945 E17.29082
G1 X178.166 Y83.067 E17.35364
G1 X178.749 Y81.203 E17.4186
G1 X179.729 Y79.422 E17.48621
G1 X180.973 Y78.037 E17.54813
G1 X182.263 Y76.904 E17.60523
G1 X182.465 Y76.786 E17.61302
G1 X183.249 Y74.113 E17.70566
G1 X182.187 Y72.466 E17.77085
G1 X181.18 Y69.03 E17.88993
G1 X181.025 Y66.784 E17.96481
G1 X182.096 Y63.137 E18.09124
G1 X182.703 Y61.97 E18.13499
G1 X182.501 Y61.281 E18.15887
G1 X182.366 Y59.336 E18.22371
G1 X182.376 Y59.18 E18.22891
G1 X182.189 Y58.887 E18.24047
G1 X181.182 Y55.453 E18.3595
G1 X181.027 Y53.211 E18.43425
G1 X182.093 Y49.575 E18.56027
G1 X182.949 Y47.928 E18.62201
G1 X183.62 Y47.223 E18.65438
G1 X183.383 Y46.854 E18.66896
G1 X182.672 Y44.404 E18.75381
G1 X182.256 Y43.774 E18.77892
G1 X181.236 Y40.295 E18.89951
G1 X181.081 Y38.04 E18.97468
G1 X181.588 Y36.313 E19.03455
G1 X180.382 Y35.666 E19.08007
G1 X177.756 Y33.04 E19.20359
G1 X176.667 Y31.345 E19.2706
G1 X175.66 Y27.909 E19.38969
G1 X175.505 Y25.665 E19.4645
G0 F6000 X175.909 Y25.71
G1 F1200 X176.947 Y22.173 E19.5871
G1 X177.746 Y20.639 E19.64463
G1 X180.204 Y18.044 E19.76351
G1 X181.818 Y16.907 E19.82918
G1 X185.435 Y15.898 E19.95407
G1 X187.422 Y15.752 E20.02034
G1 X191.092 Y16.785 E20.14714
G1 X192.766 Y17.657 E20.20992
G1 X193.019 Y17.892 E20.22141
G1 X194.898 Y17.754 E20.28407
G1 X198.568 Y18.787 E20.41088
G1 X200.293 Y19.686 E20.47558
G1 X202.861 Y22.385 E20.59949
G1 X203.21 Y22.936 E20.62118
G1 X203.518 Y23.12 E20.63311
G1 X206.047 Y25.794 E20.75553
G1 X206.977 Y27.258 E20.81321
G1 X207.955 Y30.606 E20.92922
G1 X208.12 Y32.616 E20.9963
G1 X207.333 Y35.412 E21.09291
G1 X207.439 Y35.776 E21.10552
G1 X207.604 Y37.786 E21.1726
G1 X206.814 Y40.588 E21.26943
G1 X206.986 Y40.888 E21.28093
G1 X207.948 Y44.183 E21.39509
G1 X208.113 Y46.193 E21.46217
G1 X207.063 Y49.922 E21.59102
G1 X206.506 Y50.972 E21.63056
G1 X206.602 Y52.118 E21.6688
G1 X206.267 Y53.302 E21.70973
G1 X206.973 Y54.42 E21.75371
G1 X207.95 Y57.759 E21.86942
G1 X208.115 Y59.771 E21.93657
G1 X207.065 Y63.502 E22.06548
G1 X206.196 Y65.148 E22.12739
G1 X204.628 Y66.716 E22.20114
G1 X205.106 Y68.343 E22.25754
G1 X205.265 Y70.306 E22.32305
G1 X205.192 Y70.655 E22.3349
G1 X206.258 Y71.782 E22.3865
G1 X207.186 Y73.243 E22.44407
G1 X208.164 Y76.591 E22.56008
G1 X208.329 Y78.601 E22.62715
G1 X207.279 Y82.332 E22.75607
G1 X206.578 Y83.66 E22.80601
G1 X206.51 Y83.764 E22.81015
G1 X205.953 Y85.763 E22.87917
G1 X206.391 Y87.258 E22.93098
G1 X206.556 Y89.271 E22.99816
G1 X205.508 Y92.998 E23.12693
G1 X205.211 Y93.558 E23.14801
G1 X205.313 Y93.909 E23.16017
G1 X205.478 Y95.924 E23.22741
G1 X205.383 Y96.26 E23.23902
G1 X205.5 Y96.395 E23.24496
G1 X206.406 Y97.822 E23.30118
G1 X207.384 Y101.174 E23.41732
G1 X207.549 Y103.183 E23.48437
G1 X206.947 Y105.318 E23.55814
G1 X207.022 Y105.48 E23.56408
G1 X207.952 Y108.673 E23.67469
G1 X208.117 Y110.681 E23.74171
G1 X207.067 Y114.412 E23.87062
G1 X206.198 Y116.058 E23.93253
G1 X205.262 Y116.994 E23.97655
G1 X205.769 Y117.529 E24.00107
G1 X206.705 Y119.004 E24.05917
G1 X207.683 Y122.351 E24.17515
G1 X207.848 Y124.361 E24.24223
G1 X206.798 Y128.093 E24.37117
G1 X205.929 Y129.739 E24.43308
G1 X202.195 Y133.467 E24.60858
G1 X200.579 Y134.507 E24.67249
G1 X197.088 Y135.474 E24.79298
G1 X195.056 Y135.619 E24.86073
G1 X191.459 Y134.566 E24.98539
G1 X189.821 Y133.683 E25.04728
G1 X189.253 Y133.114 E25.07402
G1 X187.766 Y132.682 E25.12552
G1 X186.087 Y131.781 E25.1889
G1 X183.529 Y129.223 E25.30922
G1 X182.494 Y127.612 E25.37291
G1 X181.515 Y124.272 E25.48867
G1 X181.368 Y122.148 E25.55948
G1 X182.403 Y118.617 E25.68187
G1 X183.221 Y117.042 E25.7409
G1 X184.064 Y116.157 E25.78155
G1 X183.914 Y113.992 E25.85373
G1 X184.954 Y110.45 E25.97651
G1 X185.349 Y109.689 E26.00503
G1 X184.812 Y109.152 E26.03029
G1 X183.784 Y107.55 E26.0936
G1 X182.985 Y104.824 E26.18808
G1 X182.614 Y104.261 E26.2105
G1 X181.614 Y100.848 E26.32879
G1 X181.467 Y98.718 E26.3998
G1 X182.503 Y95.186 E26.52223
G1 X183.284 Y93.684 E26.57853
G1 X183.46 Y93.475 E26.58762
G1 X182.552 Y92.975 E26.6221
G1 X181.11 Y91.772 E26.68456
G1 X179.937 Y90.318 E26.74669
G1 X179.089 Y88.721 E26.80683
G1 X178.551 Y86.945 E26.86856
G1 X178.367 Y84.951 E26.93516
G1 X178.56 Y83.148 E26.99547
G1 X179.12 Y81.359 E27.05782
G1 X180.056 Y79.657 E27.12242
G1 X181.237 Y78.338 E27.18131
G1 X182.527 Y77.205 E27.23841
G1 X182.866 Y77.025 E27.25118
G1 X182.876 Y76.807 E27.25844
G1 X183.695 Y74.014 E27.35524
G1 X183.567 Y73.873 E27.36158
G1 X182.555 Y72.298 E27.42384
G1 X181.576 Y68.958 E27.53961
G1 X181.429 Y66.829 E27.61059
G1 X182.469 Y63.287 E27.73337
G1 X183.132 Y62.012 E27.78116
G1 X182.897 Y61.21 E27.80896
G1 X182.765 Y59.308 E27.87237
G1 X182.79 Y59.084 E27.87987
G1 X182.556 Y58.719 E27.89429
G1 X181.578 Y55.382 E28.00995
G1 X181.431 Y53.256 E28.08083
G1 X182.467 Y49.723 E28.20328
G1 X183.277 Y48.164 E28.26172
G1 X184.126 Y47.271 E28.3027
G1 X183.751 Y46.686 E28.32581
G1 X183.039 Y44.233 E28.41077
G1 X182.622 Y43.602 E28.43592
G1 X181.632 Y40.224 E28.553
G1 X181.485 Y38.085 E28.62431
G1 X182.063 Y36.115 E28.6926
G1 X180.625 Y35.343 E28.74688
G1 X178.07 Y32.788 E28.86706
G1 X177.035 Y31.177 E28.93075
G1 X176.056 Y27.837 E29.04651
G1 X175.909 Y25.71 E29.11742
G0 F6000 X176.313 Y25.755
G1 F1200 X177.32 Y22.323 E29.23638
G1 X178.076 Y20.871 E29.29083
G1 X180.466 Y18.348 E29.40642
G1 X181.992 Y17.273 E29.4685
G1 X185.502 Y16.294 E29.5897
G1 X187.382 Y16.156 E29.6524
G1 X190.942 Y17.158 E29.77541
G1 X192.581 Y18.012 E29.83688
G1 X192.881 Y18.327 E29.85135
G1 X193.053 Y18.29 E29.8572
G1 X194.858 Y18.158 E29.91739
G1 X198.418 Y19.16 E30.0404
G1 X200.049 Y20.01 E30.10157
G1 X202.545 Y22.633 E30.222
G1 X202.93 Y23.241 E30.24593
G1 X203.227 Y23.395 E30.25706
G1 X205.731 Y26.042 E30.37825
G1 X206.609 Y27.425 E30.43274
G1 X207.559 Y30.677 E30.54542
G1 X207.715 Y32.578 E30.60886
G1 X206.917 Y35.414 E30.70685
G1 X207.043 Y35.847 E30.72185
G1 X207.199 Y37.748 E30.78529
G1 X206.381 Y40.652 E30.88563
G1 X206.602 Y41 E30.89935
G1 X207.552 Y44.254 E31.01209
G1 X207.708 Y46.155 E31.07553
G1 X206.69 Y49.772 E31.20051
G1 X206.097 Y50.889 E31.24257
G1 X206.197 Y52.08 E31.28232
G1 X205.834 Y53.364 E31.3267
G1 X206.604 Y54.584 E31.37469
G1 X207.554 Y57.831 E31.48721
G1 X207.71 Y59.733 E31.55068
G1 X206.692 Y63.351 E31.67569
G1 X205.87 Y64.908 E31.73425
G1 X204.177 Y66.601 E31.81388
G1 X204.71 Y68.416 E31.8768
G1 X204.866 Y70.338 E31.94094
G1 X204.745 Y70.765 E31.9557
G1 X205.942 Y72.03 E32.01362
G1 X206.818 Y73.41 E32.06799
G1 X207.768 Y76.662 E32.18067
G1 X207.924 Y78.563 E32.24411
G1 X206.906 Y82.181 E32.36912
G1 X206.224 Y83.473 E32.41771
G1 X206.143 Y83.592 E32.4225
G1 X205.537 Y85.767 E32.49759
G1 X205.995 Y87.33 E32.55176
G1 X206.151 Y89.233 E32.61527
G1 X205.135 Y92.848 E32.74016
G1 X204.781 Y93.514 E32.76525
G1 X204.917 Y93.98 E32.7814
G1 X205.073 Y95.885 E32.84497
G1 X204.936 Y96.369 E32.8617
G1 X205.162 Y96.609 E32.87266
G1 X206.038 Y97.989 E32.92703
G1 X206.988 Y101.245 E33.03984
G1 X207.144 Y103.144 E33.10321
G1 X206.519 Y105.361 E33.17983
G1 X206.638 Y105.592 E33.18847
G1 X207.556 Y108.744 E33.29766
G1 X207.712 Y110.643 E33.36103
G1 X206.694 Y114.261 E33.48604
G1 X205.872 Y115.818 E33.5446
G1 X204.704 Y116.986 E33.59954
G1 X205.451 Y117.774 E33.63565
G1 X206.337 Y119.171 E33.69068
G1 X207.287 Y122.422 E33.80333
G1 X207.443 Y124.323 E33.86677
G1 X206.425 Y127.942 E33.99181
G1 X205.603 Y129.499 E34.05037
G1 X201.94 Y133.156 E34.22252
G1 X200.414 Y134.138 E34.28288
G1 X197.022 Y135.078 E34.39995
G1 X195.099 Y135.215 E34.46407
