;FLAVOR:Marlin
;TIME:6888
;Filament used: 4.88376m
;Layer height: 0.2
;MINX:145.915
;MINY:12.979
;MINZ:0.2
;MAXX:212.441
;MAXY:182.011
;MAXZ:15
;TARGET_MACHINE.NAME:Creality Ender-3 Pro
;Generated with Cura_SteamEngine 5.6.0
M82 ;absolute extrusion mode
; Ender 3 Custom Start G-code
G92 E0 ; Reset Extruder
G28 ; Home all axes
G1 Z5.0 F3000 ; Move Z Axis up a bit during heating to not damage bed
M104 S195.0 ; Start heating up the nozzle most of the way
M190 S60.0 ; Start heating the bed, wait until target temperature reached
M109 S205 ; Finish heating the nozzle
G1 Z2.0 F3000 ; Move Z Axis up little to prevent scratching of Heat Bed
G1 X0.1 Y20 Z0.3 F5000.0 ; Move to start position
G1 X0.1 Y200.0 Z0.3 F1500.0 E15 ; Draw the first line
G1 X0.4 Y200.0 Z0.3 F5000.0 ; Move to side a little
G1 X0.4 Y20 Z0.3 F1500.0 E30 ; Draw the second line
G92 E0 ; Reset Extruder
G1 Z2.0 F3000 ; Move Z Axis up little to prevent scratching of Heat Bed
G1 X5 Y20 Z0.3 F5000.0 ; Move over to prevent blob squish
G92 E0
G92 E0
G1 F4500 E-6
;LAYER_COUNT:75
;LAYER:0
M107
G0 F6000 X153.841 Y33.524 Z0.2
;TYPE:SKIRT
G1 F4500 E0
G1 F1200 X154.116 Y32.28 E0.04237
G1 X154.293 Y31.664 E0.06369
G1 X154.535 Y30.928 E0.08946
G1 X154.992 Y29.688 E0.13341
G1 X155.85 Y27.252 E0.21932
G1 X156.121 Y26.414 E0.24861
G1 X156.441 Y25.468 E0.28182
G1 X156.796 Y24.559 E0.31428
G1 X157.23 Y23.689 E0.34662
G1 X157.739 Y22.858 E0.37903
G1 X158.32 Y22.075 E0.41146
G1 X158.967 Y21.349 E0.4438
G1 X159.676 Y20.681 E0.4762
G1 X160.426 Y20.089 E0.50798
G1 X161.258 Y19.491 E0.54206
G1 X163.341 Y17.948 E0.62828
G1 X165.711 Y16.078 E0.72869
G1 X166.197 Y15.685 E0.74948
G1 X166.981 Y15.109 E0.78183
G1 X167.815 Y14.603 E0.81428
G1 X168.624 Y14.203 E0.8443
G1 X169.955 Y13.711 E0.89149
G1 X170.729 Y13.485 E0.91831
G1 X171.255 Y13.344 E0.93642
G1 X172.204 Y13.138 E0.96872
G1 X173.172 Y13.015 E1.00118
G1 X174.143 Y12.979 E1.0335
G1 X175.045 Y13.023 E1.06353
G1 X176.076 Y13.166 E1.09815
G1 X176.856 Y13.34 E1.12473
G1 X177.879 Y13.613 E1.15995
G1 X178.678 Y13.862 E1.18778
G1 X181.645 Y14.887 E1.29219
G1 X184.06 Y15.639 E1.37632
G1 X186.457 Y16.313 E1.45913
G1 X188.934 Y16.934 E1.54407
G1 X191.401 Y17.478 E1.62809
G1 X193.918 Y17.959 E1.71332
G1 X195.23 Y18.184 E1.7576
G1 X196.181 Y18.393 E1.78998
G1 X197.109 Y18.686 E1.82235
G1 X198.008 Y19.06 E1.85473
G1 X198.872 Y19.512 E1.88717
G1 X199.69 Y20.038 E1.91951
G1 X200.462 Y20.635 E1.95197
G1 X201.125 Y21.248 E1.982
G1 X201.827 Y22.022 E2.01676
G1 X202.412 Y22.799 E2.04911
G1 X202.927 Y23.626 E2.08151
G1 X203.366 Y24.495 E2.11389
G1 X203.728 Y25.4 E2.14631
G1 X204.008 Y26.332 E2.17868
G1 X204.192 Y27.216 E2.20871
G1 X204.308 Y28.182 E2.24107
G1 X204.337 Y28.717 E2.25889
G1 X204.35 Y29.341 E2.27965
G1 X204.349 Y40.461 E2.6495
G1 X204.338 Y41.184 E2.67355
G1 X204.278 Y42.172 E2.70647
G1 X204.132 Y43.135 E2.73887
G1 X203.909 Y44.055 E2.77035
G1 X203.437 Y45.373 E2.81692
G1 X203.162 Y46.007 E2.8399
G1 X202.168 Y48.381 E2.9255
G1 X201.252 Y50.759 E3.01026
G1 X200.42 Y53.113 E3.0933
G1 X199.656 Y55.491 E3.17638
G1 X198.947 Y57.927 E3.26076
G1 X198.31 Y60.374 E3.34486
G1 X197.756 Y62.783 E3.42708
G1 X197.249 Y65.306 E3.51267
G1 X196.826 Y67.769 E3.59579
G1 X196.471 Y70.268 E3.67974
G1 X196.194 Y72.71 E3.76148
G1 X195.972 Y75.28 E3.84728
G1 X195.833 Y77.73 E3.9289
G1 X195.76 Y80.294 E4.01421
G1 X195.76 Y82.806 E4.09776
G1 X195.831 Y85.319 E4.18138
G1 X195.971 Y87.803 E4.26412
G1 X196.187 Y90.373 E4.3499
G1 X196.467 Y92.833 E4.43225
G1 X196.816 Y95.295 E4.51496
G1 X197.243 Y97.797 E4.59938
G1 X197.733 Y100.245 E4.68241
G1 X198.303 Y102.726 E4.76708
G1 X198.93 Y105.137 E4.84994
G1 X199.638 Y107.579 E4.93451
G1 X200.402 Y109.958 E5.01761
G1 X201.242 Y112.343 E5.10171
G1 X202.141 Y114.682 E5.18506
G1 X203.108 Y116.994 E5.26841
G1 X204.16 Y119.325 E5.35347
G1 X205.256 Y121.581 E5.43689
G1 X206.415 Y123.807 E5.52036
G1 X207.647 Y126.013 E5.6044
G1 X208.939 Y128.182 E5.68837
G1 X210.335 Y130.388 E5.7752
G1 X210.8 Y131.204 E5.80644
G1 X211.221 Y132.122 E5.84003
G1 X211.551 Y133.056 E5.87297
G1 X211.853 Y134.064 E5.90797
G1 X212.057 Y134.813 E5.93379
G1 X212.269 Y135.763 E5.96617
G1 X212.399 Y136.728 E5.99855
G1 X212.441 Y137.702 E6.03098
G1 X212.4 Y138.639 E6.06217
G1 X212.266 Y139.638 E6.0957
G1 X212.068 Y140.528 E6.12602
G1 X211.775 Y141.619 E6.16359
G1 X211.56 Y142.342 E6.18868
G1 X211.378 Y142.9 E6.2082
G1 X211.031 Y143.873 E6.24256
G1 X210.169 Y146.403 E6.33146
G1 X209.427 Y148.793 E6.41469
G1 X208.745 Y151.237 E6.49909
G1 X208.142 Y153.669 E6.58243
G1 X207.596 Y156.164 E6.66737
G1 X207.133 Y158.604 E6.74998
G1 X206.731 Y161.107 E6.83429
G1 X206.492 Y162.857 E6.89304
G1 X206.315 Y164.254 E6.93988
G1 X206.162 Y165.144 E6.96991
G1 X206.008 Y165.774 E6.99148
G1 X205.639 Y167.103 E7.03736
G1 X205.434 Y167.793 E7.0613
G1 X205.114 Y168.712 E7.09366
G1 X204.713 Y169.6 E7.12607
G1 X204.236 Y170.45 E7.15849
G1 X203.677 Y171.263 E7.1913
G1 X202.816 Y172.273 E7.23545
G1 X202.09 Y173.018 E7.27005
G1 X201.251 Y173.843 E7.30918
G1 X200.525 Y174.493 E7.34159
G1 X199.757 Y175.067 E7.37348
G1 X199.249 Y175.394 E7.39358
G1 X198.252 Y175.997 E7.43233
G1 X196.061 Y177.36 E7.51815
G1 X193.965 Y178.747 E7.60175
G1 X192.151 Y180.015 E7.67536
G1 X191.298 Y180.554 E7.70892
G1 X190.464 Y180.984 E7.74013
G1 X189.529 Y181.365 E7.77371
G1 X188.599 Y181.65 E7.80606
G1 X187.646 Y181.852 E7.83846
G1 X186.75 Y181.963 E7.86849
G1 X186.177 Y181.996 E7.88758
G1 X185.52 Y182.011 E7.90944
G1 X167.393 Y182.01 E8.51235
G1 X166.676 Y181.999 E8.5362
G1 X165.689 Y181.939 E8.56908
G1 X164.795 Y181.807 E8.59914
G1 X164.1 Y181.651 E8.62283
G1 X161.674 Y181.024 E8.70617
G1 X157.98 Y180.181 E8.83219
G1 X157.457 Y180.044 E8.85018
G1 X156.343 Y179.721 E8.88875
G1 X155.616 Y179.499 E8.91404
G1 X154.7 Y179.17 E8.94641
G1 X153.879 Y178.794 E8.97644
G1 X152.972 Y178.274 E9.01122
G1 X152.167 Y177.71 E9.04391
G1 X151.297 Y176.966 E9.08198
G1 X150.72 Y176.408 E9.10868
G1 X149.598 Y175.274 E9.16174
G1 X148.946 Y174.549 E9.19417
G1 X148.363 Y173.771 E9.2265
G1 X147.848 Y172.942 E9.25896
G1 X147.407 Y172.066 E9.29158
G1 X146.996 Y171.008 E9.32933
G1 X146.818 Y170.453 E9.34872
G1 X146.543 Y169.516 E9.3812
G1 X146.306 Y168.666 E9.41055
G1 X146.091 Y167.716 E9.44294
G1 X145.959 Y166.75 E9.47537
G1 X145.915 Y165.777 E9.50777
G1 X145.957 Y164.805 E9.54013
G1 X146.072 Y163.91 E9.57014
G1 X146.325 Y162.786 E9.60846
G1 X146.648 Y161.638 E9.64812
G1 X146.956 Y160.639 E9.68289
G1 X147.292 Y159.713 E9.71566
G1 X148.074 Y157.832 E9.78341
G1 X149 Y155.439 E9.86875
G1 X149.835 Y153.089 E9.9517
G1 X150.604 Y150.707 E10.03495
G1 X151.318 Y148.268 E10.11948
G1 X151.962 Y145.81 E10.20399
G1 X152.533 Y143.345 E10.28815
G1 X153.024 Y140.919 E10.37048
G1 X153.454 Y138.434 E10.45436
G1 X153.811 Y135.956 E10.53763
G1 X154.1 Y133.452 E10.62146
G1 X154.319 Y130.933 E10.70556
G1 X154.465 Y128.418 E10.78935
G1 X154.54 Y125.921 E10.87244
G1 X154.545 Y123.403 E10.95619
G1 X154.478 Y120.865 E11.04063
G1 X154.341 Y118.379 E11.12344
G1 X154.133 Y115.858 E11.20757
G1 X153.769 Y112.685 E11.3138
G1 X153.704 Y111.713 E11.3462
G1 X153.727 Y110.724 E11.37911
G1 X153.899 Y109.398 E11.42358
G1 X154.378 Y106.962 E11.50615
G1 X154.804 Y104.44 E11.59122
G1 X155.147 Y101.983 E11.67373
G1 X155.427 Y99.468 E11.7579
G1 X155.636 Y96.962 E11.84154
G1 X155.769 Y94.502 E11.92348
G1 X155.844 Y90.754 E12.04816
G1 X155.843 Y55.945 E13.20591
G1 X155.806 Y53.351 E13.2922
G1 X155.697 Y50.807 E13.37689
G1 X155.522 Y48.334 E13.45935
G1 X155.271 Y45.807 E13.54381
G1 X154.954 Y43.337 E13.62664
G1 X154.559 Y40.817 E13.71148
G1 X154.09 Y38.293 E13.79686
G1 X153.913 Y37.413 E13.82672
G1 X153.765 Y36.451 E13.85909
G1 X153.703 Y35.478 E13.89152
G1 X153.726 Y34.54 E13.92273
G1 X153.841 Y33.524 E13.95673
G0 F6000 X154.232 Y33.61
G1 F1200 X154.507 Y32.366 E13.99911
G1 X154.673 Y31.789 E14.01908
G1 X154.91 Y31.066 E14.04438
G1 X155.367 Y29.826 E14.08834
G1 X156.231 Y27.375 E14.17477
G1 X156.5 Y26.542 E14.20389
G1 X156.814 Y25.613 E14.23651
G1 X157.154 Y24.737 E14.26776
G1 X157.571 Y23.897 E14.29895
G1 X158.06 Y23.096 E14.33016
G1 X158.619 Y22.341 E14.36141
G1 X159.242 Y21.64 E14.3926
G1 X159.924 Y20.995 E14.42382
G1 X160.659 Y20.414 E14.45498
G1 X161.491 Y19.816 E14.48906
G1 X163.589 Y18.262 E14.5759
G1 X165.959 Y16.392 E14.67631
G1 X166.434 Y16.007 E14.69665
G1 X167.189 Y15.451 E14.72783
G1 X167.992 Y14.962 E14.7591
G1 X168.801 Y14.562 E14.78912
G1 X170.067 Y14.095 E14.834
G1 X170.833 Y13.871 E14.86054
G1 X171.34 Y13.735 E14.878
G1 X172.255 Y13.535 E14.90915
G1 X173.187 Y13.415 E14.94041
G1 X174.124 Y13.379 E14.9716
G1 X175.026 Y13.423 E15.00163
G1 X175.989 Y13.556 E15.03397
G1 X176.753 Y13.726 E15.06
G1 X177.76 Y13.995 E15.09467
G1 X178.547 Y14.24 E15.12208
G1 X181.526 Y15.269 E15.22691
G1 X183.941 Y16.021 E15.31103
G1 X186.36 Y16.701 E15.39461
G1 X188.848 Y17.325 E15.47992
G1 X191.315 Y17.869 E15.56395
G1 X193.843 Y18.352 E15.64955
G1 X195.145 Y18.575 E15.69349
G1 X196.061 Y18.775 E15.72467
G1 X196.956 Y19.056 E15.75587
G1 X197.823 Y19.415 E15.78708
G1 X198.656 Y19.849 E15.81832
G1 X199.446 Y20.355 E15.84952
G1 X200.19 Y20.929 E15.88078
G1 X200.853 Y21.542 E15.91081
G1 X201.508 Y22.263 E15.94321
G1 X202.073 Y23.011 E15.97439
G1 X202.57 Y23.807 E16.0056
G1 X202.995 Y24.644 E16.03682
G1 X203.345 Y25.515 E16.06804
G1 X203.616 Y26.414 E16.09927
G1 X203.8 Y27.298 E16.1293
G1 X203.911 Y28.229 E16.16049
G1 X203.937 Y28.725 E16.17701
G1 X203.95 Y29.341 E16.1975
G1 X203.949 Y40.455 E16.56715
G1 X203.939 Y41.16 E16.59061
G1 X203.882 Y42.113 E16.62236
G1 X203.743 Y43.042 E16.6536
G1 X203.532 Y43.92 E16.68364
G1 X203.06 Y45.238 E16.7302
G1 X202.795 Y45.848 E16.75232
G1 X201.799 Y48.227 E16.8381
G1 X200.879 Y50.615 E16.92322
G1 X200.043 Y52.98 E17.00665
G1 X199.275 Y55.369 E17.09011
G1 X198.563 Y57.815 E17.17484
G1 X197.923 Y60.273 E17.25932
G1 X197.366 Y62.693 E17.34191
G1 X196.857 Y65.227 E17.42788
G1 X196.432 Y67.701 E17.51137
G1 X196.075 Y70.212 E17.59572
G1 X195.795 Y72.676 E17.6782
G1 X195.574 Y75.246 E17.764
G1 X195.433 Y77.719 E17.84638
G1 X195.36 Y80.283 E17.9317
G1 X195.36 Y82.806 E18.01561
G1 X195.431 Y85.33 E18.0996
G1 X195.572 Y87.837 E18.18311
G1 X195.789 Y90.407 E18.26889
G1 X196.071 Y92.889 E18.35198
G1 X196.422 Y95.362 E18.43505
G1 X196.851 Y97.875 E18.51984
G1 X197.343 Y100.335 E18.60328
G1 X197.916 Y102.827 E18.68833
G1 X198.546 Y105.248 E18.77154
G1 X199.257 Y107.701 E18.85648
G1 X200.025 Y110.091 E18.93998
G1 X200.869 Y112.487 E19.02447
G1 X201.772 Y114.836 E19.10817
G1 X202.743 Y117.159 E19.19191
G1 X203.8 Y119.5 E19.27734
G1 X204.901 Y121.766 E19.36113
G1 X206.06 Y123.992 E19.44461
G1 X207.303 Y126.218 E19.5294
G1 X208.595 Y128.387 E19.61337
G1 X209.987 Y130.586 E19.69993
G1 X210.452 Y131.402 E19.73117
G1 X210.844 Y132.255 E19.7624
G1 X211.168 Y133.171 E19.79471
G1 X211.467 Y134.17 E19.82939
G1 X211.667 Y134.901 E19.8546
G1 X211.873 Y135.817 E19.88583
G1 X211.999 Y136.746 E19.91701
G1 X212.041 Y137.685 E19.94827
G1 X212 Y138.622 E19.97947
G1 X211.876 Y139.551 E20.01064
G1 X211.682 Y140.424 E20.04038
G1 X211.391 Y141.505 E20.07762
G1 X211.18 Y142.218 E20.10235
G1 X211.001 Y142.766 E20.12152
G1 X210.654 Y143.739 E20.15588
G1 X209.79 Y146.274 E20.24496
G1 X209.045 Y148.674 E20.32854
G1 X208.36 Y151.13 E20.41335
G1 X207.751 Y153.583 E20.49741
G1 X207.205 Y156.078 E20.58236
G1 X206.74 Y158.529 E20.66533
G1 X206.336 Y161.044 E20.75005
G1 X206.096 Y162.803 E20.8091
G1 X205.921 Y164.186 E20.85547
G1 X205.768 Y165.076 E20.8855
G1 X205.623 Y165.667 E20.90574
G1 X205.256 Y166.989 E20.95137
G1 X205.056 Y167.662 E20.97473
G1 X204.749 Y168.548 E21.00591
G1 X204.364 Y169.405 E21.03716
G1 X203.906 Y170.224 E21.06837
G1 X203.372 Y171.004 E21.09981
G1 X202.529 Y171.994 E21.14306
G1 X201.81 Y172.733 E21.17735
G1 X200.984 Y173.545 E21.21588
G1 X200.285 Y174.173 E21.24713
G1 X199.54 Y174.731 E21.27809
G1 X199.042 Y175.052 E21.2978
G1 X198.041 Y175.657 E21.3367
G1 X195.84 Y177.026 E21.42291
G1 X193.744 Y178.413 E21.5065
G1 X191.922 Y179.687 E21.58045
G1 X191.115 Y180.198 E21.61222
G1 X190.281 Y180.628 E21.64343
G1 X189.411 Y180.983 E21.67468
G1 X188.515 Y181.259 E21.70586
G1 X187.597 Y181.455 E21.73708
G1 X186.701 Y181.566 E21.76711
G1 X186.168 Y181.596 E21.78487
G1 X185.52 Y181.611 E21.80643
G1 X167.399 Y181.61 E22.40913
G1 X166.7 Y181.6 E22.43238
G1 X165.747 Y181.543 E22.46414
G1 X164.853 Y181.411 E22.49419
G1 X164.2 Y181.264 E22.51646
G1 X161.763 Y180.634 E22.60018
G1 X158.081 Y179.794 E22.72579
G1 X157.568 Y179.66 E22.74342
G1 X156.46 Y179.339 E22.78179
G1 X155.751 Y179.122 E22.80645
G1 X154.867 Y178.806 E22.83767
G1 X154.046 Y178.43 E22.86771
G1 X153.201 Y177.946 E22.9001
G1 X152.427 Y177.406 E22.93149
G1 X151.557 Y176.662 E22.96956
G1 X151.004 Y176.127 E22.99515
G1 X149.895 Y175.006 E23.0476
G1 X149.266 Y174.309 E23.07883
G1 X148.702 Y173.559 E23.11004
G1 X148.205 Y172.762 E23.14128
G1 X147.78 Y171.921 E23.17262
G1 X147.377 Y170.886 E23.20956
G1 X147.202 Y170.34 E23.22863
G1 X146.928 Y169.409 E23.26091
G1 X146.696 Y168.577 E23.28964
G1 X146.487 Y167.661 E23.32089
G1 X146.359 Y166.731 E23.35211
G1 X146.315 Y165.794 E23.38331
G1 X146.354 Y164.856 E23.41453
G1 X146.469 Y163.961 E23.44455
G1 X146.71 Y162.894 E23.48093
G1 X147.03 Y161.756 E23.52025
G1 X147.332 Y160.775 E23.55439
G1 X147.661 Y159.867 E23.58651
G1 X148.443 Y157.986 E23.65426
G1 X149.373 Y155.583 E23.73996
G1 X150.212 Y153.223 E23.82327
G1 X150.985 Y150.83 E23.90691
G1 X151.702 Y148.38 E23.99181
G1 X152.349 Y145.911 E24.07671
G1 X152.923 Y143.435 E24.16124
G1 X153.416 Y140.998 E24.24394
G1 X153.848 Y138.502 E24.32819
G1 X154.207 Y136.013 E24.41183
G1 X154.497 Y133.498 E24.49604
G1 X154.717 Y130.968 E24.5805
G1 X154.865 Y128.43 E24.66506
G1 X154.94 Y125.933 E24.74815
G1 X154.945 Y123.404 E24.83226
G1 X154.878 Y120.854 E24.9171
G1 X154.74 Y118.346 E25.00065
G1 X154.531 Y115.825 E25.08478
G1 X154.168 Y112.658 E25.19081
G1 X154.104 Y111.721 E25.22205
G1 X154.124 Y110.775 E25.25352
G1 X154.296 Y109.449 E25.29799
G1 X154.77 Y107.039 E25.37968
G1 X155.198 Y104.507 E25.46509
G1 X155.545 Y102.027 E25.54838
G1 X155.825 Y99.512 E25.63255
G1 X156.034 Y96.995 E25.71655
G1 X156.169 Y94.51 E25.79932
G1 X156.244 Y90.762 E25.92401
G1 X156.243 Y55.945 E27.08203
G1 X156.206 Y53.345 E27.16851
G1 X156.097 Y50.79 E27.25357
G1 X155.921 Y48.306 E27.33639
G1 X155.669 Y45.767 E27.42125
G1 X155.351 Y43.286 E27.50445
G1 X154.954 Y40.755 E27.58966
G1 X154.483 Y38.22 E27.67542
G1 X154.308 Y37.352 E27.70487
G1 X154.164 Y36.425 E27.73607
G1 X154.103 Y35.488 E27.7673
G1 X154.126 Y34.55 E27.79851
G1 X154.232 Y33.61 E27.82997
G0 F6000 X154.623 Y33.696
G1 F1200 X154.898 Y32.452 E27.87234
G1 X155.053 Y31.913 E27.891
G1 X155.285 Y31.204 E27.91581
G1 X155.742 Y29.964 E27.95976
G1 X156.612 Y27.498 E28.04674
G1 X156.879 Y26.67 E28.07567
G1 X157.187 Y25.757 E28.10772
G1 X157.513 Y24.914 E28.13778
G1 X157.913 Y24.105 E28.1678
G1 X158.382 Y23.333 E28.19784
G1 X158.918 Y22.606 E28.22789
G1 X159.517 Y21.93 E28.25793
G1 X160.172 Y21.309 E28.28795
G1 X160.893 Y20.739 E28.31852
G1 X161.725 Y20.14 E28.35261
G1 X163.837 Y18.576 E28.44002
G1 X166.207 Y16.706 E28.54043
G1 X166.672 Y16.329 E28.56034
G1 X167.398 Y15.792 E28.59038
G1 X168.169 Y15.321 E28.62043
G1 X168.978 Y14.921 E28.65044
G1 X170.179 Y14.479 E28.69301
G1 X170.937 Y14.257 E28.71928
G1 X171.426 Y14.126 E28.73612
G1 X172.307 Y13.932 E28.76612
G1 X173.203 Y13.815 E28.79618
G1 X174.105 Y13.779 E28.8262
G1 X175.007 Y13.823 E28.85624
G1 X175.902 Y13.946 E28.88628
G1 X176.65 Y14.112 E28.91177
G1 X177.641 Y14.377 E28.94589
G1 X178.416 Y14.618 E28.97288
