;FLAVOR:Marlin
;TIME:6958
;Filament used: 4.89976m
;Layer height: 0.2
;MINX:149.409
;MINY:12.62
;MINZ:0.2
;MAXX:215.765
;MAXY:182.011
;MAXZ:15
;TARGET_MACHINE.NAME:Creality Ender-3 Pro
;Generated with Cura_SteamEngine 5.6.0
M82 ;absolute extrusion mode
; Ender 3 Custom Start G-code
G92 E0 ; Reset Extruder
G28 ; Home all axes
G1 Z5.0 F3000 ; Move Z Axis up a bit during heating to not damage bed
M104 S195.0 ; Start heating up the nozzle most of the way
M190 S60.0 ; Start heating the bed, wait until target temperature reached
M109 S205 ; Finish heating the nozzle
G1 Z2.0 F3000 ; Move Z Axis up little to prevent scratching of Heat Bed
G1 X0.1 Y20 Z0.3 F5000.0 ; Move to start position
G1 X0.1 Y200.0 Z0.3 F1500.0 E15 ; Draw the first line
G1 X0.4 Y200.0 Z0.3 F5000.0 ; Move to side a little
G1 X0.4 Y20 Z0.3 F1500.0 E30 ; Draw the second line
G92 E0 ; Reset Extruder
G1 Z2.0 F3000 ; Move Z Axis up little to prevent scratching of Heat Bed
G1 X5 Y20 Z0.3 F5000.0 ; Move over to prevent blob squish
G92 E0
G92 E0
G1 F4500 E-6
;LAYER_COUNT:75
;LAYER:0
M107
G0 F6000 X157.55 Y26.89 Z0.2
;TYPE:SKIRT
G1 F4500 E0
G1 F1200 X157.781 Y25.943 E0.03242
G1 X158.081 Y25.055 E0.0636
G1 X158.487 Y24.13 E0.09719
G1 X158.922 Y23.338 E0.12725
G1 X159.504 Y22.472 E0.16195
G1 X160.118 Y21.715 E0.19437
G1 X160.796 Y21.017 E0.22674
G1 X161.533 Y20.381 E0.25911
G1 X162.324 Y19.811 E0.29154
G1 X163.1 Y19.349 E0.32158
G1 X164.042 Y18.896 E0.35634
G1 X164.928 Y18.564 E0.38781
G1 X166.291 Y18.212 E0.43464
G1 X168.599 Y17.774 E0.51277
G1 X171.098 Y17.234 E0.59781
G1 X173.449 Y16.657 E0.67832
G1 X175.944 Y15.964 E0.76445
G1 X178.335 Y15.229 E0.84764
G1 X180.744 Y14.414 E0.93223
G1 X182.848 Y13.646 E1.00672
G1 X183.345 Y13.478 E1.02417
G1 X184.242 Y13.205 E1.05536
G1 X184.903 Y13.024 E1.07815
G1 X185.824 Y12.815 E1.10956
G1 X187.157 Y12.655 E1.15422
G1 X187.574 Y12.631 E1.16811
G1 X188.478 Y12.62 E1.19818
G1 X189.386 Y12.679 E1.22844
G1 X190.73 Y12.874 E1.27361
G1 X191.537 Y13.051 E1.30109
G1 X192.077 Y13.185 E1.3196
G1 X193.011 Y13.463 E1.35201
G1 X193.914 Y13.823 E1.38434
G1 X194.722 Y14.227 E1.41439
G1 X195.611 Y14.776 E1.44914
G1 X196.36 Y15.336 E1.48025
G1 X196.928 Y15.835 E1.50539
G1 X197.587 Y16.459 E1.53558
G1 X198.241 Y17.113 E1.56634
G1 X200.118 Y18.939 E1.65344
G1 X201.627 Y20.316 E1.72138
G1 X202.342 Y20.983 E1.7539
G1 X203.035 Y21.693 E1.7869
G1 X203.65 Y22.447 E1.81927
G1 X204.197 Y23.253 E1.85166
G1 X204.676 Y24.117 E1.88452
G1 X205.188 Y25.318 E1.92794
G1 X205.314 Y25.673 E1.94047
G1 X206.643 Y29.195 E2.06568
G1 X207.009 Y30.112 E2.09852
G1 X207.355 Y31.12 E2.13396
G1 X207.527 Y31.712 E2.15447
G1 X207.755 Y32.659 E2.18687
G1 X207.89 Y33.552 E2.2169
G1 X207.953 Y34.595 E2.25166
G1 X207.923 Y35.578 E2.28437
G1 X207.776 Y36.724 E2.3228
G1 X207.614 Y37.588 E2.35203
G1 X207.353 Y38.882 E2.39594
G1 X206.921 Y41.387 E2.48049
G1 X206.569 Y43.849 E2.5632
G1 X206.285 Y46.339 E2.64656
G1 X206.064 Y48.887 E2.73162
G1 X205.923 Y51.349 E2.81364
G1 X205.847 Y53.939 E2.89983
G1 X205.837 Y55.312 E2.94549
G1 X205.837 Y90.398 E4.11246
G1 X205.874 Y92.97 E4.19801
G1 X205.983 Y95.536 E4.28343
G1 X206.157 Y97.999 E4.36556
G1 X206.403 Y100.484 E4.44861
G1 X206.731 Y103.047 E4.53455
G1 X207.108 Y105.448 E4.61539
G1 X207.512 Y107.555 E4.68675
G1 X207.777 Y108.996 E4.73548
G1 X207.909 Y109.961 E4.76787
G1 X207.954 Y110.863 E4.79791
G1 X207.865 Y112.355 E4.84762
G1 X207.751 Y113.227 E4.87687
G1 X207.454 Y115.831 E4.96404
G1 X207.237 Y118.328 E5.04741
G1 X207.095 Y120.814 E5.13023
G1 X207.02 Y123.379 E5.21558
G1 X207.018 Y125.889 E5.29906
G1 X207.087 Y128.403 E5.38271
G1 X207.226 Y130.885 E5.46539
G1 X207.437 Y133.426 E5.55019
G1 X207.718 Y135.913 E5.63344
G1 X208.066 Y138.378 E5.71624
G1 X208.491 Y140.874 E5.80045
G1 X208.974 Y143.302 E5.88279
G1 X209.556 Y145.836 E5.96926
G1 X210.171 Y148.216 E6.05102
G1 X210.882 Y150.668 E6.13593
G1 X211.642 Y153.044 E6.2189
G1 X212.485 Y155.435 E6.30323
G1 X213.373 Y157.753 E6.38579
G1 X214.409 Y160.24 E6.4754
G1 X214.737 Y161.145 E6.50741
G1 X214.963 Y161.879 E6.53296
G1 X215.353 Y163.253 E6.58046
G1 X215.576 Y164.2 E6.61282
G1 X215.706 Y165.094 E6.64287
G1 X215.765 Y166.139 E6.67768
G1 X215.73 Y167.111 E6.71003
G1 X215.611 Y168.07 E6.74217
G1 X215.462 Y168.803 E6.76705
G1 X215.313 Y169.389 E6.78716
G1 X215.043 Y170.365 E6.82084
G1 X214.775 Y171.269 E6.8522
G1 X214.455 Y172.189 E6.8846
G1 X214.054 Y173.076 E6.91697
G1 X213.577 Y173.926 E6.94939
G1 X213.026 Y174.729 E6.98178
G1 X212.437 Y175.447 E7.01267
G1 X212.094 Y175.815 E7.0294
G1 X211.221 Y176.705 E7.07087
G1 X210.536 Y177.374 E7.10271
G1 X209.861 Y177.975 E7.13277
G1 X209.024 Y178.597 E7.16746
G1 X208.222 Y179.088 E7.19874
G1 X207.341 Y179.524 E7.23143
G1 X206.017 Y180.013 E7.27837
G1 X204.994 Y180.313 E7.31383
G1 X203.836 Y180.626 E7.35373
G1 X202.57 Y180.886 E7.39672
G1 X200.826 Y181.137 E7.45532
G1 X198.227 Y181.561 E7.5429
G1 X196.809 Y181.822 E7.59086
G1 X195.837 Y181.955 E7.62349
G1 X195.175 Y181.996 E7.64555
G1 X194.518 Y182.011 E7.66741
G1 X176.381 Y182.01 E8.27065
G1 X175.643 Y181.998 E8.2952
G1 X174.671 Y181.939 E8.32758
G1 X173.708 Y181.793 E8.35998
G1 X172.761 Y181.562 E8.3924
G1 X171.905 Y181.274 E8.42244
G1 X170.95 Y180.856 E8.45711
G1 X170.158 Y180.422 E8.48715
G1 X169.53 Y180.015 E8.51204
G1 X168.241 Y179.114 E8.56435
G1 X166.137 Y177.696 E8.64874
G1 X163.977 Y176.326 E8.73381
G1 X163.07 Y175.784 E8.76895
G1 X162.382 Y175.36 E8.79583
G1 X161.602 Y174.826 E8.82727
G1 X160.595 Y173.975 E8.87112
G1 X160.011 Y173.41 E8.89815
G1 X158.936 Y172.32 E8.94907
G1 X158.286 Y171.595 E8.98146
G1 X157.702 Y170.816 E9.01384
G1 X157.189 Y169.989 E9.04621
G1 X156.78 Y169.183 E9.07627
G1 X156.304 Y167.95 E9.12023
G1 X156.071 Y167.201 E9.14632
G1 X155.679 Y165.82 E9.19406
G1 X155.456 Y164.873 E9.22642
G1 X155.322 Y163.954 E9.25731
G1 X155.231 Y163.063 E9.2871
G1 X154.938 Y160.53 E9.37191
G1 X154.571 Y157.998 E9.457
G1 X154.147 Y155.557 E9.53941
G1 X153.649 Y153.105 E9.62263
G1 X153.073 Y150.63 E9.70715
G1 X152.43 Y148.179 E9.79142
G1 X151.717 Y145.749 E9.87565
G1 X150.935 Y143.335 E9.96005
G1 X150.371 Y141.705 E10.01742
G1 X150.198 Y141.156 E10.03656
G1 X149.826 Y139.861 E10.08138
G1 X149.601 Y138.913 E10.11378
G1 X149.469 Y138.02 E10.14381
G1 X149.409 Y136.977 E10.17856
G1 X149.442 Y136.004 E10.21094
G1 X149.562 Y135.031 E10.24354
G1 X149.792 Y133.982 E10.27926
G1 X150.099 Y132.886 E10.31712
G1 X150.326 Y132.144 E10.34293
G1 X150.654 Y131.227 E10.37532
G1 X151.046 Y130.377 E10.40645
G1 X151.467 Y129.629 E10.435
G1 X152.561 Y127.888 E10.50339
G1 X153.859 Y125.711 E10.58769
G1 X155.063 Y123.557 E10.66977
G1 X156.257 Y121.269 E10.7556
G1 X157.35 Y119.023 E10.83868
G1 X158.382 Y116.742 E10.92195
G1 X159.372 Y114.371 E11.00741
G1 X160.261 Y112.069 E11.08949
G1 X161.096 Y109.7 E11.17303
G1 X161.877 Y107.275 E11.25777
G1 X162.574 Y104.885 E11.34057
G1 X163.215 Y102.422 E11.42522
G1 X163.783 Y99.948 E11.50964
G1 X164.268 Y97.536 E11.59147
G1 X164.703 Y95.006 E11.67686
G1 X165.05 Y92.569 E11.75873
G1 X165.336 Y90.05 E11.84305
G1 X165.555 Y87.511 E11.92781
G1 X165.694 Y85.062 E12.00939
G1 X165.767 Y82.498 E12.09471
G1 X165.767 Y79.985 E12.17829
G1 X165.696 Y77.465 E12.26214
G1 X165.557 Y74.996 E12.34439
G1 X165.342 Y72.433 E12.42993
G1 X165.061 Y69.967 E12.51248
G1 X164.705 Y67.454 E12.5969
G1 X164.282 Y64.985 E12.68022
G1 X163.784 Y62.5 E12.76451
G1 X163.227 Y60.072 E12.84737
G1 X162.584 Y57.601 E12.93229
G1 X161.887 Y55.202 E13.01538
G1 X161.117 Y52.806 E13.09908
G1 X160.272 Y50.408 E13.18365
G1 X159.374 Y48.078 E13.2667
G1 X158.176 Y45.21 E13.37008
G1 X157.865 Y44.362 E13.40012
G1 X157.594 Y43.351 E13.43493
G1 X157.428 Y42.387 E13.46747
G1 X157.344 Y41.305 E13.50356
G1 X157.331 Y40.681 E13.52432
G1 X157.332 Y29.549 E13.89457
G1 X157.344 Y28.825 E13.91866
G1 X157.403 Y27.851 E13.95111
G1 X157.55 Y26.89 E13.98345
G0 F6000 X157.939 Y26.984
G1 F1200 X158.16 Y26.071 E14.01469
G1 X158.448 Y25.215 E14.04473
G1 X158.838 Y24.323 E14.07711
G1 X159.273 Y23.531 E14.10716
G1 X159.815 Y22.723 E14.13952
G1 X160.405 Y21.993 E14.17074
G1 X161.058 Y21.319 E14.20196
G1 X161.767 Y20.705 E14.23315
G1 X162.529 Y20.155 E14.26441
G1 X163.305 Y19.693 E14.29445
G1 X164.182 Y19.271 E14.32682
G1 X165.068 Y18.939 E14.35828
G1 X166.366 Y18.605 E14.40286
G1 X168.674 Y18.167 E14.481
G1 X171.182 Y17.625 E14.56634
G1 X173.554 Y17.042 E14.64758
G1 X176.051 Y16.349 E14.73377
G1 X178.463 Y15.608 E14.81769
G1 X180.881 Y14.79 E14.90259
G1 X182.976 Y14.025 E14.97677
G1 X183.461 Y13.861 E14.9938
G1 X184.348 Y13.591 E15.02464
G1 X184.992 Y13.414 E15.04686
G1 X185.872 Y13.212 E15.07689
G1 X187.205 Y13.052 E15.12154
G1 X187.579 Y13.031 E15.134
G1 X188.483 Y13.02 E15.16407
G1 X189.329 Y13.075 E15.19226
G1 X190.645 Y13.265 E15.23649
G1 X191.441 Y13.439 E15.26359
G1 X191.963 Y13.568 E15.28147
G1 X192.863 Y13.835 E15.3127
G1 X193.735 Y14.181 E15.3439
G1 X194.543 Y14.585 E15.37395
G1 X195.371 Y15.096 E15.40631
G1 X196.12 Y15.656 E15.43741
G1 X196.653 Y16.125 E15.46103
G1 X197.304 Y16.742 E15.49086
G1 X197.962 Y17.4 E15.52181
G1 X199.841 Y19.228 E15.609
G1 X201.354 Y20.609 E15.67713
G1 X202.056 Y21.263 E15.70904
G1 X202.725 Y21.946 E15.74084
G1 X203.319 Y22.672 E15.77204
G1 X203.848 Y23.448 E15.80328
G1 X204.308 Y24.274 E15.83472
G1 X204.811 Y25.452 E15.87733
G1 X204.937 Y25.807 E15.88986
G1 X206.271 Y29.343 E16.01555
G1 X206.637 Y30.26 E16.04839
G1 X206.971 Y31.232 E16.08258
G1 X207.138 Y31.806 E16.10246
G1 X207.359 Y32.719 E16.1337
G1 X207.494 Y33.612 E16.16374
G1 X207.553 Y34.584 E16.19613
G1 X207.526 Y35.527 E16.22751
G1 X207.379 Y36.673 E16.26594
G1 X207.222 Y37.509 E16.29423
G1 X206.961 Y38.803 E16.33813
G1 X206.527 Y41.319 E16.42305
G1 X206.173 Y43.792 E16.50614
G1 X205.886 Y46.305 E16.59027
G1 X205.666 Y48.853 E16.67533
G1 X205.523 Y51.337 E16.75809
G1 X205.447 Y53.927 E16.84427
G1 X205.437 Y55.309 E16.89023
G1 X205.437 Y90.398 E18.0573
G1 X205.474 Y92.987 E18.14342
G1 X205.583 Y95.553 E18.22884
G1 X205.759 Y98.038 E18.3117
G1 X206.006 Y100.535 E18.39515
G1 X206.334 Y103.098 E18.4811
G1 X206.715 Y105.523 E18.56274
G1 X207.119 Y107.627 E18.634
G1 X207.381 Y109.051 E18.68216
G1 X207.509 Y109.981 E18.71338
G1 X207.554 Y110.883 E18.74342
G1 X207.468 Y112.304 E18.79077
G1 X207.355 Y113.176 E18.82001
G1 X207.055 Y115.797 E18.90776
G1 X206.839 Y118.294 E18.99112
G1 X206.695 Y120.802 E19.07467
G1 X206.62 Y123.367 E19.16002
G1 X206.618 Y125.889 E19.2439
G1 X206.687 Y128.414 E19.32791
G1 X206.827 Y130.918 E19.41133
G1 X207.039 Y133.459 E19.49614
G1 X207.322 Y135.969 E19.58015
G1 X207.672 Y138.445 E19.66332
G1 X208.099 Y140.952 E19.7479
G1 X208.584 Y143.392 E19.83064
G1 X209.166 Y145.926 E19.91712
G1 X209.787 Y148.327 E19.99961
G1 X210.501 Y150.79 E20.0849
G1 X211.265 Y153.177 E20.16826
G1 X212.111 Y155.578 E20.25293
G1 X212.999 Y157.896 E20.33549
G1 X214.033 Y160.377 E20.42489
G1 X214.355 Y161.263 E20.45624
G1 X214.578 Y161.988 E20.48147
G1 X214.964 Y163.345 E20.52839
G1 X215.18 Y164.258 E20.5596
G1 X215.31 Y165.152 E20.58965
G1 X215.365 Y166.125 E20.62206
G1 X215.333 Y167.062 E20.65324
G1 X215.219 Y167.99 E20.68434
G1 X215.074 Y168.705 E20.7086
G1 X214.928 Y169.282 E20.7284
G1 X214.659 Y170.252 E20.76188
G1 X214.397 Y171.138 E20.79261
G1 X214.09 Y172.025 E20.82383
G1 X213.705 Y172.881 E20.85505
G1 X213.247 Y173.7 E20.88626
G1 X212.717 Y174.475 E20.91748
G1 X212.144 Y175.174 E20.94755
G1 X211.808 Y175.535 E20.96395
G1 X210.941 Y176.419 E21.00513
G1 X210.27 Y177.075 E21.03634
G1 X209.595 Y177.676 E21.0664
G1 X208.814 Y178.256 E21.09876
G1 X208.045 Y178.729 E21.12879
G1 X207.164 Y179.165 E21.16148
G1 X205.904 Y179.629 E21.20614
G1 X204.889 Y179.927 E21.24132
G1 X203.755 Y180.234 E21.2804
G1 X202.513 Y180.49 E21.32258
G1 X200.762 Y180.742 E21.38142
G1 X198.163 Y181.166 E21.469
G1 X196.736 Y181.429 E21.51726
G1 X195.812 Y181.556 E21.54828
G1 X195.166 Y181.596 E21.56981
G1 X194.518 Y181.611 E21.59137
G1 X176.387 Y181.61 E22.19441
G1 X175.667 Y181.599 E22.21836
G1 X174.73 Y181.543 E22.24958
G1 X173.802 Y181.404 E22.28079
G1 X172.889 Y181.183 E22.31203
G1 X172.033 Y180.895 E22.34207
G1 X171.142 Y180.505 E22.37442
G1 X170.35 Y180.071 E22.40446
G1 X169.759 Y179.687 E22.4279
G1 X168.465 Y178.782 E22.48042
G1 X166.361 Y177.364 E22.56481
G1 X164.191 Y175.988 E22.65027
G1 X163.28 Y175.444 E22.68556
G1 X162.607 Y175.029 E22.71186
G1 X161.86 Y174.52 E22.74192
G1 X160.873 Y173.687 E22.78488
G1 X160.296 Y173.129 E22.81158
G1 X159.233 Y172.052 E22.86191
G1 X158.606 Y171.355 E22.89309
G1 X158.042 Y170.605 E22.9243
G1 X157.546 Y169.808 E22.95552
G1 X157.137 Y169.002 E22.98559
G1 X156.686 Y167.831 E23.02732
G1 X156.456 Y167.092 E23.05306
G1 X156.068 Y165.728 E23.10023
G1 X155.852 Y164.815 E23.13144
G1 X155.72 Y163.913 E23.16176
G1 X155.629 Y163.022 E23.19154
G1 X155.334 Y160.473 E23.27689
G1 X154.967 Y157.941 E23.36199
G1 X154.541 Y155.489 E23.44476
G1 X154.039 Y153.014 E23.52876
G1 X153.463 Y150.539 E23.61327
G1 X152.817 Y148.077 E23.69793
G1 X152.101 Y145.636 E23.78254
G1 X151.316 Y143.212 E23.86729
G1 X150.752 Y141.584 E23.92459
G1 X150.582 Y141.046 E23.94336
G1 X150.215 Y139.768 E23.98758
G1 X149.997 Y138.855 E24.0188
G1 X149.865 Y137.962 E24.04883
G1 X149.809 Y136.99 E24.08121
G1 X149.839 Y136.052 E24.11242
G1 X149.953 Y135.117 E24.14375
G1 X150.183 Y134.068 E24.17947
G1 X150.481 Y133.003 E24.21625
G1 X150.703 Y132.278 E24.24147
G1 X151.018 Y131.394 E24.27268
G1 X151.395 Y130.573 E24.30273
G1 X151.806 Y129.842 E24.33062
G1 X152.9 Y128.101 E24.39901
G1 X154.203 Y125.916 E24.48363
G1 X155.418 Y123.742 E24.56646
G1 X156.612 Y121.454 E24.6523
G1 X157.71 Y119.198 E24.73575
G1 X158.746 Y116.907 E24.81938
G1 X159.741 Y114.525 E24.90524
G1 X160.634 Y112.213 E24.98767
G1 X161.477 Y109.823 E25.07196
G1 X162.258 Y107.398 E25.1567
G1 X162.958 Y104.997 E25.23988
G1 X163.602 Y102.523 E25.32491
G1 X164.173 Y100.038 E25.40971
G1 X164.66 Y97.615 E25.49192
G1 X165.097 Y95.074 E25.57767
G1 X165.446 Y92.625 E25.65995
G1 X165.735 Y90.084 E25.74501
G1 X165.953 Y87.545 E25.82976
G1 X166.094 Y85.073 E25.91212
G1 X166.167 Y82.509 E25.99743
G1 X166.167 Y79.985 E26.08138
G1 X166.096 Y77.454 E26.16559
G1 X165.956 Y74.962 E26.24861
G1 X165.74 Y72.399 E26.33416
G1 X165.457 Y69.911 E26.41744
G1 X165.101 Y67.398 E26.50186
G1 X164.676 Y64.917 E26.58558
G1 X164.176 Y62.421 E26.67025
G1 X163.617 Y59.983 E26.75344
G1 X162.971 Y57.5 E26.83877
G1 X162.271 Y55.09 E26.92224
G1 X161.498 Y52.684 E27.00629
G1 X160.649 Y50.275 E27.09125
G1 X159.747 Y47.934 E27.17469
G1 X158.552 Y45.072 E27.27784
G1 X158.241 Y44.224 E27.30789
G1 X157.988 Y43.283 E27.3403
G1 X157.827 Y42.356 E27.37159
G1 X157.744 Y41.297 E27.40692
G1 X157.731 Y40.681 E27.42741
G1 X157.732 Y29.555 E27.79746
G1 X157.743 Y28.849 E27.82095
G1 X157.799 Y27.911 E27.8522
G1 X157.939 Y26.984 E27.88338
G0 F6000 X158.328 Y27.077
G1 F1200 X158.539 Y26.199 E27.91342
G1 X158.827 Y25.343 E27.94346
G1 X159.189 Y24.516 E27.97348
G1 X159.624 Y23.724 E28.00354
G1 X160.126 Y22.974 E28.03355
G1 X160.693 Y22.271 E28.06359
G1 X161.32 Y21.621 E28.09363
G1 X162.002 Y21.029 E28.12367
G1 X162.734 Y20.499 E28.15373
G1 X163.51 Y20.037 E28.18376
G1 X164.323 Y19.645 E28.21378
G1 X165.168 Y19.326 E28.24382
G1 X166.441 Y18.998 E28.28755
G1 X168.755 Y18.559 E28.36588
G1 X171.267 Y18.015 E28.45137
G1 X173.659 Y17.427 E28.5333
G1 X176.171 Y16.731 E28.61999
G1 X178.591 Y15.987 E28.7042
G1 X181.018 Y15.166 E28.78942
G1 X183.104 Y14.404 E28.86328
G1 X183.577 Y14.244 E28.87989
G1 X184.455 Y13.977 E28.91041
G1 X185.081 Y13.804 E28.93201
G1 X185.961 Y13.602 E28.96204
G1 X187.227 Y13.451 E29.00445
G1 X187.584 Y13.431 E29.01634
